X:1
T:Fantasia and Fugue in C Minor, BWV 537
T:Fantasia and Fugue in C Minor, BWV 537
T:Johann Sebastian Bach
C:Johann Sebastian Bach
%%score { ( 1 2 6 ) | ( 3 5 ) | 4 }
L:1/8
Q:1/4=70
M:6/4
K:Eb
V:1 treble nm="Pipe Organ" snm="Org."
V:2 treble 
V:6 treble 
V:3 treble 
V:5 treble 
V:4 bass-8 
V:1
"^Praeludium (Fantasia).""_Manual" z2 z2 G2 e3 d e2 | c2 f4- fe/d/ eaga | d2 g4- gf/e/ fc=Bf- | %3
w: * * * .|||
 fe a4- ag/f/ ed=eg | b2 ag f2 c'6- | c'3 c'=bc' b2 c'_bag | a6 g3 d e2- | e3 f/e/ d/e/f f2 e4 | %8
w: |||||
 d2- d/f/e/d/ g/f/e/d/ c4 f2- | fe/d/ e4- e3 ced |{c} =B12 | z G(gf)(fe) fF(fe)(ed) | %12
w: ||||
 e2 a4- a2 g4- | (gf)(fe)(ed) e2 =A2 d2- | d2 e4- e2 d4- | d/c/=B/d/ c4- c/c/d/e/ f2- f/f/e/d/ | %16
w: ||||
 e6- ed d4- | (dc)(cB) c2- (ce)(ed)(dc) | B2- B/=A/B/c/ dg- g/=f/_e/d/ c2- c/c/B/=A/ | %19
w: |||
 G2 ^f2 g2- g>c' g2 P^f>g | g4 z2 z2 z2 G2 | e3 d e2 d2 g4- | gf/e/ fb=ab =e2 =a4- | %23
w: ||||
 a g2 ^fg=a ^f4 =f2 | _ag- g4- g=a/=b/ c'bab | c'g c'4- c'_b/=a/ b4- | %26
w: |||
 b=a/g/ ^f/g/f/g/ =a2- ag/^f/ g3 ^f | g6- g^f g3 =f | e2 d4- d/f/e/d/ c4 | %29
w: |||
 d2- d=e/^f/ g/=a/b/a/ g/=e/=f/d/ P^c4 | d4 z2 z6 | z g(G=A)(A_B) Af(A=B)(Bc) | %32
w: |||
 c/=B/=A/G/ eddc de/f/ Pd4- | d2 c4- c2 =B4 | c6- cF B4- | B2 (AB)(Bc) F2 B4- | (BA)(AG)(GF) G6- | %37
w: |||||
 G2 F2 f2- f2 =e4 | f6- f6- | f6 fF(fe)(ed) | e3 _d(dc) d3 c(cB) | %41
w: ||||
 c2- c/e/_d/c/ B/A/G/F/ =E/F/E/F/ G/A/B/c/ _d/B/c- | c/=d/_e (dc)(c=B) B2 c/G/=A/=B/ c/d/e/c/ | %43
w: ||
 f6- f/g/a (ag)(gf) | e6- ed- d c2 =B | c6- c/=B/c/=A/{c} PB3 c | c2- c/=B/c/d/ e/f/g/a/ d2 g4- | %47
w: ||||
[Q:1/4=60] g/f/e/d/[Q:1/4=55] c/=B/c/f/[Q:1/4=40] e/d/e/[Q:1/4=10]c/[Q:1/4=40] =B6 || %48
w: |
[M:2/2][Q:1/4=80] x4 x2[Q:1/4=170]"^Fuga." z2 | z8 | z8 | z8 | z4 z2 G2 | c2 c2 c2 c2 | e4- ec=Ac | %55
w: |||||||
 ^F2 e2 d2 c2 | B2 =AB Ggfg | _A2 g2 f2 d2 | G2 f2 e2 c2- | cedc =B=AGF | E2 c4 f2 | G2 =B2 c2 B2 | %62
w: |||||||
 cgfg efde | c8- | c=Bcd e4- | e2 c2 =a4- | ag^fg b4- | b=f=ed egcB | Acfg a4- | aedc dfBA | %70
w: ||||||||
 GBef g4- | gcde f4- | fefg fedc | d8- | dcde dc=Bc | d2 =B2 c2 d2 | G4- G2 F2 | _B4- BABc | %78
w: ||||||||
 A2 _d2 c4- | cc=d_e f4- | f=Bcd e4- | edec d4- | d2 g2- g^fg=a | d4- d2 b2- | bg=ab ag^fg | %85
w: |||||||
 =a6 g2- | gg=fe f4- | f4 e4 | d2 c2 B2 =A2 | Gdcd B2 g2 | f4- f_agf | e4- ecfe | d4- dfed | %93
w: ||||||||
 c4- cdef | g2 g2 g2 g2 | a4- af=df | =B2 a2 g2 f2 | e4 z fg=a | =b2 z2 z2 g2- | g_bag f4- | %100
w: |||||||
 f2 d2 g2 a2 | g2 f2 e4- | eefg fedc | d=Bcd ef g2- | gfag fedc | =B4 z4 | z8 | z8 | %108
w: ||||||||
 z =Bcd c_B=AG | =A^cd_e d=cBA | B2 c2 d4 | e4 =e4 | f4 ^f4 | g^fg_a g=fed | e4 =e4 | f2 g2 a4 | %116
w: ||||||||
 g8- | g=ef_g f_e_dc | _d4 c4- | c8 | z def edcB | A8- | A^FG_A G=FED | C=ABc BAG^F | Gg=ab ag^fg | %125
w: |||||||||
 B3 c =A4 | G4 d4 | e4 =e4 | f8- | f_ef_g fe_dc | _d4 =d4 | e8- | e_def edc=B | c8- | c2 f2- f4- | %135
w: ||||||||||
 ffga gfed | c=efg f_edc | d^fg_a g=fed | c=Bc_d c_BAG | Acfg =aedc | =B4- B_agf | edc_B =Aed^f | %142
w: |||||||
 g4 d4 | e4 =e4 | f4 ^f4 | g=fg_a gfed | c4- ccfe | d4- ddgf | eg=Bd cedf | e8- | e8- | %151
w: |||||||||
 edfe dc=Bc | (c2 =B2) z2 G2 | c2 c2 c2 cd | e4- ec=Ac | ^F2 e2 d2 c2 | B2 =AB Ggfg | %157
w: ||||||
 _A2 g2 f2 d2 | G2 f2 e2 c2- | cedc =B=AGF | E2 c4 f2 | G2 =B2 c2 B2 | cgfg efde | c8- | %164
w: |||||||
 c=Bcd e4- | e2 c2 =a4- | ag^fg b4- | b=f=ed e g3- | gcfg a4- | aedc d f3- | fBef g4- | gcde f4- | %172
w: ||||||||
 fG=A=B cde^F | Gdc=B cBce- | edec d4- | d f2 f2 e2 d | c2 a2 g2 f/e/d | %177
w: |||||
[Q:1/4=150] c2 e2[Q:1/4=120] dc[Q:1/4=90] d2 |[Q:1/4=70] (d4[Q:1/4=20] c2) |] %179
w: ||
V:2
 z6 z2 z2 C2 | A3 G A2 G2 c4- | cB/A/ Bede =A2 d4- | d c2 =Bcd B4 _B2 | _dc- c4- c=d=efge | %5
 fc f4 f_e/d/ e4- | ed/c/ =B/c/B/c/ d2- dc/B/ c3 =B | c6- c=B c3 _B | A2 G4- G/B/A/G/ F4 | %9
 G4 z A G^F- F4 | G12 | z12 | z C(cB)(BA) BB,(BA)(AG) | A2 D2 G2- Gc(cB)(B=A) | %14
 B3 (_AA)G A3 (GG)F | G2- G/_B/A/G/ FG A2- A/A/G/F/ G2- | G=A/B/ (AG)(G^F) F2 GcB=A | %17
 G2 ^F3 G =A2 ^F2 z2 | z/ D/=E/^F/ G4 =A2- A/B/A/G/ ^F2 | G2 =A2 d2 e2 d2 c2 | B4 z2 z6 | z12 | %22
 z6 z2 z2 D2 | B3 =A B2 A2 d4- | dc/=B/ cfef =B2 f4- | fe/d/ e_B=Ae- ed/c/ d=AGd- | %26
 dc/B/ cG^Fc B=ABc d2- | dG c3 G =A2 z Bed | cB =A4 B2- B/B/=A/G/ ^F/G/F/G/ | ^F2 G4- G2 G4 | %30
 =AB/c/ BAAG A6- | AG x10 | x2 z2 G2 _A2 G4 | G2 x10 | E2 =E2 F2- FD(B,C)(C_D) | %35
 Cc(C=D)(D_E) DB(D=E)(EF) | F3 =EEF _D2 C4- | CC(cB)(BA) BB,(BA)(AG) | A2 =A2 B2- B=A/G/ (AB)(Bc) | %39
 FB(B_A)(AG) A2 G4- | GCcBBA BB,BAAG | A2- AB,C_D- DC =E3 E | FG(F_E)(ED) D2 z CEG | %43
 _AF =B3 c d2 =B2 d2- | dGc=BcG A2 G4- | (GF)(FE)(ED) D2- DE F2- | FE x6 z d _B2 | x12 || %48
[M:2/2] x6 C2 | G2 G2 G2 G2 | A4- AFDF | =B,2 A2 G2 F2 | E2 DE C=B,CD | ECDE FG=A=B | cGEG C4- | %55
 C_B,=A,C B,A,G,^F, | G,B,CD E4- | EDCE DC=B,=A, | =B,G,=A,B, CDEF | ECDE DFED | CDEC F4- | %61
 FEDF EFDE | x6 G2- | GB=AG ^FG=EF | G4- G2 c2 | =A4- Acde | d6 d2 | c4 z2 G2 | F2 z2 z2 c2 | %69
 B4 z2 F2 | E2 z2 z4 | z8 | z4 z2 C2 | G2 G2 G2 G2 | A4- AFDF | =B,2 A2 G2 F2 | E2 DE C=B,CD | %77
 =EDEF G4- | G2 F2- F=EFG | A4- AGAF | G4- GG=A_B | c4- c2 c2 | B4 =A4- | AcB=A GFED | E8- | %85
 Eedc B4 | =A4 Aedc | =BdBG c4- | c _B2 A2 G2 ^F | G4 z4 | z2 d2 =B4 | z Gc_B A4- | AcBA G4- | %93
 GCDE F4- | FB_dB =E4 | z C=D=E FG A2 | G2 =B2 c2 d2- | ddcd e4 | z def edc=B | c6 =Bc | %100
 d2 =B2 c2 B2- | B c2 =B c4- | c2 C2 F4- | F4 z D E2- | E2 =E2 F2 ^F2 | GD_E=F EDC=B, | %106
 C=EFG F_EDC | D^FG_A G=FED | E4 =E4 | F4 ^F4 | G2 =A2 Bc d2- | d2 G2- GdcB | =A2 A2 Aedc | d8- | %114
 d=Bcd c_BAG | F2 z2 z2 B2- | B=Bc_d c_BAG | A4 =A4 | B8- | BGAB AGFE | F4 G4- | GEFG FEDC | %122
 B,4 =B,4 | C4 ^C4 | D2 z2 z2 =A2- | A^F G2- G=E ^F2 | G4 z4 | z4 G4 | A4 =A4 | B8- | %130
 B=AB_c B_A_GF | _G4 =G4 | A8- | AGA_B AGF=E | F3 G Aedc | =B8 | c4 z GFE | D4 z _AGF | E4 z4 | %139
 z8 | z4 G4 | A4 =A4 | B4 =B4 | c=Bc_d c_BAG | A4 =A4 | =B8 | c_BAG F4- | FFBA G4 | G2 G2 G2 G2 | %149
 TG8- | G8 | F4 ^F4 | G4 z2 FG | ECDE FG=A=B | cGEG C4- | CB,=A,C B,A,G,^F, | G,B,CD E4- | %157
 EDCE DC=B,=A, | =B,G,=A,B, CDEF | ECDE DFED | CDEC F4- | FEDF EFDE | G,2 =B,2 C2 G2- | %163
 G_B=AG ^FG=EF | G4- G2 c2 | =A4- Acde | d6 d2 | c4 z2 cB | A2 z2 z2 c2 | B4 z2 BA | G2 z2 z4 | %171
 z8 | z4 z2 C2 | G2 G2 G2 G2 | A4- AFDF | =B,2 A2 G2 F2 | E2 =B2 c2 c2 | c4 =B=A G2 | G4- G2 |] %179
V:3
 z12 | z12 | z6 z2 z2 G,2 | E3 D E2 D2 G4- | GF/=E/ FBAB =E2 B4- | BA/G/ A_EDA- AG/F/ GDCG- | %6
 GF/E/ FC=B,F EDEF G2- | GC F3 C G2- GEAG | FE D4 E2- E/E/D/C/[K:bass] =B,/C/B,/C/ | =B,2 C4- C6 | %10
 D12 | z12 | z12 | z12 | z G,(GF)(FE) FF,(FE)(ED) | E4- E/E/D/C/ F2 =B,4 | %16
 CG,(C_B,)(B,=A,) A,2 z/ G,/^F,/G,/ =A,/B,/C/D/ | E6- E/D/C/B,/ C/B,/=A,/G,/ A,2- | %18
 A,2 G,=A,B,D E2 ^F,2 D2- | (DC)(CB,)(B,=A,) A,/C/4B,/4A,/G,/ z D3- | D4 D,2 B,3 =A, B,2 | %21
 G,2 C4- CB,/=A,/ B,EDE | =A,2 D4- DC/B,/ CG,^F,D, | G,B, E4- ED/C/ B,=A,=B,D | %24
[K:treble] F2 ED C2 G6- | G3 G^FG FG-G=FED | E6 D3 =A, B,2- | B,3 C/B,/ =A,/B,/C C2 z D G2 | %28
 C2- C/[K:bass] E/D/C/ D/C/B,/=A,/ G,4 C2- | CB,/=A,/ z2 D2- D2 =E4 | %30
 ^F,D,(DC)(CB,) CD,(CB,)(B,=A,) |[K:treble] B,C =B,2 C2- C2 D2 E2 | D2[K:bass] C4- C2 =B,4- | %33
 B,G,GFFE FF,FEED | z C(C,D,)(D,_E,) D,B,(D,=E,)(E,F,) | =E,C, F,4- F,/G,/F,/_E,/ (F,G,)(G,C,) | %36
 C,F,(CB,)(B,A,) B,B,,(B,A,)(A,G,) | A,4 _E2 G,4 C2 | F,2 _D4 C6- | C2 F,2 C2 =D4 =B,2 | %40
 G,2 A,4- A,B, G,4- | G,/F,/=E,/G,/ F,4 B,4- B,B, | A,6- A,G, G,3 C | %43
 C/_B,/_A,/G,/ F,/E,/F,/G,/ A,2- A,/G,/F,/E,/ F,/E,/D,/C,/ G,2- | %44
 G,/=B,/C/D/[K:treble] E/F/G/A/ G/F/E/D/ C/=B,/C/D/ E/D/E/F/ D/C/D/E/ | %45
 C2- C/D/C/=B,/ C/_B,/=A,/G,/ A,2 G,4- | G,2 _A4- A2 D/C/_B,/C/ D/C/D/B,/ | EDE=EF^F G6 || %48
[M:2/2] x4 x2[K:bass] z2 | z8 | z8 | z8 | z8 | z8 | z8 | z8 | z8 | z8 | z8 | z8 | z8 | z8 | %62
 G,2 =B,2 C2 G,2 | C2 C2 C2 C2 | E4- EC=A,C | ^F,2 E2 D2 C2 | B,2 =A,B, G,2 =F2 | G4 z2 C2- | %68
 CB,A,G, F,2 _E2 | F4 z2 B,2- | B,A,G,F, E,2 E2 | CEFG A2 A,2 | G,2 =B,2 C2 E2 | DF,G,A, G,F,E,D, | %74
 E,4 F,4- | F,D,E,F, E,D,C,=B,, | C,E,F,G, A,4 | G,2 F,2 =E,2 C,2 | F,=E,F,G, A,2 G,2 | %79
 F,2 =E,2 D,2 C,2 | =B,,G,=A,=B, C2 _B,2 | =A,2 _A,2 ^F,D,=E,F, | G,=A,B,C DEDC | B,8 | C8 | %85
 ^F,4 G,=A,B,C | D2 D2 D2 D2 | E4- EC=A,C | ^F,2 E2 D2 C2 | B,2 =A,B, G,A,B,C | DEFD GFED | %91
 CDEC FEDC | B,CDB, EDCB, | =A,4 _A,4 | G,4 z CB,C | F,4 z2[K:treble] F2- | FEDF EDC=B, | %97
 CG,=A,=B, CDEF | G2 z2 z DEF | EDC=B, C2 A2- | A G2 F2 E2 D | E2 F2 GECE | A,8- | %103
 A,G,=A,=B, C3 =B, | C8 | D2 z2[K:bass] G,4 | _A,4 =A,4 | B,4 =B,4 | C4 z4 | z8 | %110
 z EDC B,=A,G,^F, | G,=B,CD C_B,=A,G, | =A,^CD_E D=CB,A, | B,4 =B,4 | C8- | C=A,_B,C B,_A,G,F, | %116
 G,4 z4 | z8 |[K:treble] z FGA GF=E=D | C=EFG F_EDC | B,8 |[K:bass] E,2 A,2 B,2 F,2 | G,8- | %123
 G,6 =A,2 | B,2 G,2 =E4 | D4- D3 C- | CC=B,=A, G,F,E,D, | C,=B,C_D C_B,_A,G, | %128
 F,=E,F,_G, F,_E,_D,C, | _D,C,D,E, D,C,B,,=A,, | B,,C,_D,E, F,_G,A,B, | E,=D,E,F, E,_D,C,B,, | %132
 C,B,,C,_D, C,B,,A,,G,, | A,,B,,C,_D, E,F,G,A, | =D,C,D,E, D,C,=B,,=A,, | G,,=A,,=B,,C, D,E,F,G, | %136
 E,G,A,B,[K:treble] C4- | C=A,B,C D4 | E4 =E4 | F4 ^F4 | G=FG_A GFED |[K:bass] C4- CCB,=A, | %142
 G,^F,G,_A, G,=F,E,D, | C,2 G,2 C2 C,2 | F,A,CE DCB,=A, | G,DEF EDGF | E4- EEDC | B,2 F2- FFED | %148
 CEDF EG=B,D | TC8- | C8- | C8 | D4 z4 | z8 | z8 | z8 | z8 | z8 | z8 | z8 | z8 | z8 | z4 z2 G,2 | %163
 C2 C2 C2 C2 | _E4- EC=A,C | ^F,2 E2 D2 C2 | B,2 =A,B, G,2 =F2 | G4 z2 G2 | CB,A,C F,2 _E2 | %169
 F4 z2 F2 | B,A,G,B, E,2 E2 | CEFG FEDC | =B,FED E2 =A,2 | =B,=FED EDEC | F4 =B,4- | B,8 | %176
 G,2 F,2 G,2 A,2 | E2 G2 FE F2 | (F4 E2) |] %179
V:4
"^Pedal" C,,12- | C,,12- | C,,12- | C,,12- | C,,12- | C,,12- | C,,6- C,,4 C,2 | %7
 A,3 G, A,2 G,2 C4- | C2 B,4- B,2 A,4 | G,12- | G,G,,(G,F,)(F,E,) F,G,,(F,E,)(E,D,) | %11
 E,4 A,2 D,4 G,2 | C,4 F,2 D,2 =E,2 C,2 | F,2 =B,,4 C,2 ^F,,4 | G,,4 C,2 F,,4 B,,2 | %15
 E,,2 E,4- E,2 D,2 G,2 | C,6- C,2 B,,4- | B,,2 =A,,2 G,,2 ^F,,2 D,,2 F,,2 | %18
 G,,2 E,2 B,,2 C,2 D,2 D,,2 | E,,4 D,,2 C,,2 D,,4 | G,,12- | G,,12- | G,,12- | G,,12- | G,,12- | %25
 G,,12- | G,,6- G,,4 G,,2 | E,3 D, E,2 D,2 G,4- | G,2 F,4- F,2 E,4 | D,12- | D,2 G,4- G,2 ^F,4 | %31
 G,12- | G,G,,G,F,F,E, F,G,,F,E,E,D, | E,4 A,2 D,4 G,2 | C,2 _B,,2 =A,,2 B,,2 _A,,2 G,,2 | %35
 A,,6- A,,4 G,,2 | F,,6- F,,2 =E,,4 | F,,2 z2 z2 z6 | z F,,(F,_E,)(E,_D,) E,F,,(E,_D,)(D,C,) | %39
 _D,4 C,2 =B,,4 G,,2 | C,4 F,2 _B,,4 E,2 | A,,6 A,,2 G,,2 C,2 | F,,2 F,4- F,2 E,4- | %43
 E,2 D,2 C,2 =B,,2 G,,2 B,,2 | C,2 A,2 E,2 F,2 G,2 G,,2 | A,,4 G,,2 ^F,,2 G,,4 | %46
 C,,4 C,2- C,2 B,,4- | B,,2 _A,,4 G,,6 ||[M:2/2] x4 x2 z2 | z8 | z8 | z8 | z8 | z8 | z8 | z8 | z8 | %57
 z8 | z4 z2 C,2 | G,2 G,2 G,2 G,2 | A,4- A,F,D,F, | =B,,2 A,2 G,2 F,2 | E,2 D,E, C,2 _B,,2 | %63
 =A,,8 | G,,G,E,G, C,4- | C,C=A,C ^F,4 | G,4- G,G,D,=F, | =E,2 G,2 C,2 E,2 | F,4- F,F,C,_E, | %69
 D,2 F,2 B,,2 D,2 | E,4- E,E,C,E, | A,,4- A,,A,F,A, | =B,,2 G,,2 C,4- | C,4 =B,,4 | C,4 z4 | z8 | %76
 z8 | z8 | z8 | z8 | z8 | z8 | z8 | z8 | z8 | z8 | z8 | z8 | z8 | z8 | z8 | z8 | z8 | z8 | z8 | %95
 z8 | z8 | z4 z2 C,2 | G,2 G,2 G,2 G,2 | A,4- A,F,D,F, | =B,,2 A,2 G,2 F,2 | E,2 D,E, C,E,A,,C, | %102
 F,,2 E,2 D,2 C,2 | =B,,2 G,,2 C,2 E,,2 | A,,8 | G,,4 z4 | z8 | z8 | z8 | z8 | z8 | z8 | z8 | z8 | %114
 z4 C,4 | _D,4 =D,4 | E,4 =E,4 | F,8- | F,4 =E,4 | A,8- | A,4 G,4 | C,4 D,4 | E,8- | E,4 =E,4 | %124
 D,4 ^C,4 | D,4 D,,4 | G,,4 z4 | z8 | z8 | z8 | z8 | z8 | z8 | z8 | z8 | z4 G,,4 | _A,,4 =A,,4 | %137
 B,,4 =B,,4 | C,2 _B,,2 A,,2 C,2 | F,,2 A,,2 D,,2 D,2 | G,,2 D,2 G,2 G,,2 | C,2 E,2 ^F,,2 D,2 | %142
 G,,4 z4 | z8 | z8 | z4 G,,4 | A,,4 =A,,4 | B,,4 =B,,4 | C,8- | C,E,D,F, E,G,=B,,D, | %150
 C,E,=B,,D, C,E,G,,_B,, | A,,8 | G,,G,F,G, E,F,D,E, | C,2 F,2 E,2 D,2 | C,4- C,=A,^F,A, | %155
 D,2 C,2 D,2 D,,2 | G,,4 z2 C,2 | F,,4 z2 F,,2 | G,,4 z2 C,2 | G,2 G,2 G,2 G,2 | A,4- A,F,D,F, | %161
 =B,,2 A,2 G,2 F,2 | E,2 D,E, C,D,=B,,C, | =A,,8 | G,,G,E,G, C,4- | C,C=A,C ^F,4 | G,4- G,G,D,=F, | %167
 =E,2 G,2 C,2 E,2 | F,4- F,F,C,_E, | D,2 F,2 B,,2 D,2 | E,4- E,E,C,E, | A,,8 | G,,8- | G,,8- | %174
 G,,8- | G,,8 | C,2 D,2 E,2 F,2 | G,4 G,,4 | C,,4- C,,2 |] %179
V:5
 x12 | x12 | x12 | x12 | x12 | x12 | x12 | x5 C D2 C x3 | x10[K:bass] x2 | x12 | x12 | x12 | x12 | %13
 x12 | x12 | x12 | x12 | x12 | x12 | x8 B,2 P=A,G, | G,4 x8 | x12 | x12 | x12 |[K:treble] x12 | %25
 x12 | x12 | x8 B,4 | =A2 x/[K:bass] x19/2 | x2 B,4- B,3 G,B,=A, | =A,2 x10 | %31
[K:treble] x2 D2 E2- E2 F2 G2 | F2[K:bass] x10 | x12 | x12 | x12 | x12 | x12 | x12 | x12 | x12 | %41
 x12 | x12 | x12 | x2[K:treble] x10 | x12 | x2 z ECE F/G/F/E/ x4 | C6 D6 ||[M:2/2] x6[K:bass] x2 | %49
 x8 | x8 | x8 | x8 | x8 | x8 | x8 | x8 | x8 | x8 | x8 | x8 | x8 | x8 | x8 | x8 | x8 | x8 | x8 | %68
 x8 | x8 | x8 | x8 | x8 | x8 | x8 | x8 | x8 | x8 | x8 | x8 | x8 | x8 | x8 | x8 | x8 | x8 | x8 | %87
 x8 | x8 | x8 | x8 | x8 | x8 | x8 | x8 | x6[K:treble] x2 | x8 | x8 | x8 | x8 | x8 | x8 | x8 | x8 | %104
 x8 | x4[K:bass] x4 | x8 | x8 | x8 | x8 | x8 | x8 | x8 | x8 | x8 | x8 | x8 | x8 |[K:treble] x8 | %119
 x8 | x8 |[K:bass] x8 | x8 | x8 | x8 | x8 | x8 | x8 | x8 | x8 | x8 | x8 | x8 | x8 | x8 | x8 | %136
 x4[K:treble] x4 | x8 | x8 | x8 | x8 |[K:bass] x8 | x8 | x8 | x8 | x8 | x8 | x8 | x8 | x8 | x8 | %151
 x8 | x8 | x8 | x8 | x8 | x8 | x8 | x8 | x8 | x8 | x8 | x8 | x8 | x8 | x8 | x8 | x8 | x8 | x8 | %170
 x8 | x8 | x8 | x8 | x8 | x8 | x2 DECE D2 | G,8 | G,4- G,2 |] %179
V:6
 x12 | x12 | x12 | x12 | x12 | x12 | x12 | x12 | x12 | z2 z =B c2- c2 =A4 | x12 | x12 | x12 | x12 | %14
 x12 | x12 | x12 | x12 | x12 | x12 | x12 | x12 | x12 | x12 | x12 | x12 | x12 | x12 | x12 | x12 | %30
 x12 | x12 | x12 | x12 | x12 | x12 | x12 | x12 | x12 | x12 | x12 | x12 | x12 | x12 | x12 | x12 | %46
 x12 | x12 ||[M:2/2] x8 | x8 | x8 | x8 | x8 | x8 | x8 | x8 | x8 | x8 | x8 | x8 | x8 | x8 | x8 | %63
 x8 | x8 | x8 | x8 | x8 | x8 | x8 | x8 | x8 | x8 | x8 | x8 | x8 | x8 | x8 | x8 | x8 | x8 | x8 | %82
 x8 | x8 | x8 | x8 | x8 | x8 | x8 | x8 | x8 | x8 | x8 | x8 | x8 | x8 | x8 | x8 | x8 | x8 | x8 | %101
 x8 | x8 | x8 | x8 | x8 | x8 | x8 | x8 | x8 | x8 | x8 | x8 | x8 | x8 | x8 | x8 | x8 | x8 | x8 | %120
 x8 | x8 | x8 | x8 | x8 | x8 | x8 | x8 | x8 | x8 | x8 | x8 | x8 | x8 | x8 | x8 | x8 | x8 | x8 | %139
 x8 | x8 | x8 | x8 | x8 | x8 | x8 | x8 | x8 | x8 | x8 | x8 | x8 | x8 | x8 | x8 | x8 | x8 | x8 | %158
 x8 | x8 | x8 | x8 | x8 | x8 | x8 | x8 | x8 | x8 | x8 | x8 | x8 | x8 | x8 | x8 | x8 | x8 | x8 | %177
 x6 =B2 | =B4 x2 |] %179

